!!!COM: Joplin, Scott
!!!CDT: 1868/11/24/-1917/04/01/
!!!OTL: Palm Leaf Rag
!!!ODT: 1903///
!!!PPR: Victor Kremer Co.
!!!PPP: Chicago and New York
!!!PDT: 1903///
!!!ENC: Craig Stuart Sapp
!!!END: 2004/06/09/
!!!YEC: Copyright 2004 by Craig Stuart Sapp
**kern	**kern	**dynam
*staff2	*staff1	*staff1
*Ipiano	*Ipiano	*Ipiano
*>[I,A,A1,A,A2,B,B1,B,B2,C,C1,C,C2,D,E,E1,E,E2]	*>[I,A,A1,A,A2,B,B1,B,B2,C,C1,C,C2,D,E,E1,E,E2]	*>[I,A,A1,A,A2,B,B1,B,B2,C,C1,C,C2,D,E,E1,E,E2]
*>norep[I,A,A2,B,B2,C,C2,D,E,E2]	*>norep[I,A,A2,B,B2,C,C2,D,E,E2]	*>norep[I,A,A2,B,B2,C,C2,D,E,E2]
=1-	=1-	=1-
*>I	*>I	*>I
*clefF4	*clefG2	*clefG2
*k[b-e-]	*k[b-e-]	*k[b-e-]
*M2/4	*M2/4	*M2/4
*MM90	*MM90	*MM90
16B-LL	16b-LL	.
16A	16a	.
16G	16g	.
[16B-JJ	[16b-JJ	.
16B-LL]	16b-LL]	.
16AJ	16aJ	.
8GJ	8gJ	.
=2	=2	=2
16FLL	16fLL	.
16G	16g	.
16A	16a	.
[16FJJ	[16fJJ	.
4F]	4f]	.
=3	=3	=3
8CL	8cL	.
16FL	16dL	.
16GJJ	16e-JJ	.
16FLK	16fLK	.
8E-	8g	.
16CJk	16aJk	.
=4	=4	=4
8BB-L	8b-	mf
8F 8B- 8dJ	8r	.
8FFL	4r	.
8F 8B- 8dJ	.	.
=5!|:	=5!|:	=5!|:
*>A	*>A	*>A
8C 8cL	8fL	mf
8F 8A 8e-J	16gL	.
.	[16aJJ	.
8FFL	16aLL]	.
.	16gJ	.
8F 8A 8e-J	8fJ	.
=6	=6	=6
8CL	[4f [4a [4ff	.
8F 8A 8e-J	.	.
8FFL	16f] 16a] 16ffLL]	.
.	16ee-	.
8F 8A 8e-J	16cc	.
.	16cc#JJ	.
=7	=7	=7
8BB-L	16ddLL	.
.	16ddd	.
8F 8B- 8dJ	16bb-	.
.	16ffJJ	.
8FFL	16ggLL	.
.	16ff	.
8F 8B- 8dJ	16b-	.
.	[16ddJJ	.
=8	=8	=8
8BB-L	16ddLL]	.
.	16bb-	.
8F 8B- 8dJ	16aa	.
.	16ggJJ	.
8D 8dL	16ggLK	.
.	8ff	.
8BBn 8BnJ	.	.
.	16ddJk	.
=9	=9	=9
*	*^	*
8C 8cL	8ee-L	8.aL	.
8F 8A 8e-J	16ffL	.	.
.	[16ee-JJ	[16aJk	.
8FF 8FL	16ee-LL]	8aL]	.
.	16ddJ	.	.
8FF# 8F#J	8ccJ	8aJ	.
*	*v	*v	*
=10	=10	=10
8GG 8GL	[4b-	.
8G 8B- 8dJ	.	.
8GGL	16b-LL]	.
.	16dd	.
8B- 8dJ	16gg	.
.	16bb-JJ	.
=11	=11	=11
8AAL	16aaLL	.
.	16ff	.
8A 8d 8fJ	16dd	.
.	[16aJJ	.
8AAL	16aLL]	.
.	16gg	.
8A 8c#J	16ff	.
.	16eenJJ	.
=12	=12	=12
8d 8fL	[4dd	.
(GGq	.	.
8AAJ)	.	.
8DD	8dd]	.
8r	8r	.
=13	=13	=13
8CL	8fL	.
8F 8A 8e-J	16gL	.
.	[16aJJ	.
8FFL	16aLL]	.
.	16gJ	.
8F 8A 8e-J	8fJ	.
=14	=14	=14
8CL	[4f [4a [4ff	.
8F 8A 8e-J	.	.
8FFL	16f] 16a] 16ffLL]	.
.	16ee-	.
8F 8A 8e-J	16cc	.
.	16cc#JJ	.
=15	=15	=15
8BB-L	16ddLL	.
.	16ddd	.
8F 8B- 8dJ	16bb-	.
.	16ffJJ	.
*	*^	*
8GGL	16aa-LL	8.bnL	.
.	16gg	.	.
8G 8Bn 8dJ	16ff	.	.
.	[16ee-JJ	[16ccJk	.
*	*v	*v	*
=16	=16	=16
8CL	16cc] 16ee-LL]	.
.	16ff	.
8G 8c 8e-J	16gg	.
.	16aaJJ	.
8EE- 8E-L	16cccLL	.
.	16bb-	.
8G 8c 8e-J	16gg	.
.	16ee-JJ	.
=17	=17	=17
8EE- 8E-L	16ggLL	.
.	16b-	.
8G 8B- 8e-J	16cc	.
.	[16ee-JJ	.
8GG 8GL	16ee-LL]	.
.	16ffJ	.
8EE- 8E-J	8b- 8ggJ	.
=18	=18	=18
8DD 8DL	[4b- 4ff [4bb-	.
8F 8B- 8dJ	.	.
8EEn 8EnL	16b-] 16bb-LL]	.
.	16bb-	.
8G 8B- 8c#J	16aa	.
.	16ggJJ	.
=19	=19	=19
8FF 8FL	16ffLK	.
.	8dd	.
8F 8B- 8dJ	.	.
.	16ccJk	.
8GG 8GL	8en 8b-L	.
8FF 8FJ	8e- 8a 8ccJ	.
=20	=20	=20
*>A1	*>A1	*>A1
8BB- 8B-	8d 8b-	.
8r	(16ddLL	.
.	16cc#JJ	.
8r	16ddLL	.
.	16b-	.
8BBn 8Bn	16g	.
.	16g-JJ)	.
=21:|!	=21:|!	=21:|!
*>A2	*>A2	*>A2
8BB- 8B-	8d 8b-	.
(8fL	(8ddL	.
8d	8ff	.
8B-J)	8ff 8dddJ)	.
=22!|:	=22!|:	=22!|:
*>B	*>B	*>B
8E-L	16ff# 16cccLK	f
.	8gg 8bb-	.
8G 8B- 8e-J	.	.
.	[16g [16ee- [16ggJk	.
8BB-L	16g] 16ee-] 16ggLL]	.
.	16a 16ffn 16aaJ	.
8G 8B- 8e-J	8b- 8gg 8bb-J	.
=23	=23	=23
(16GLL	[4e- [4ee-	.
16F	.	.
16G	.	.
16AJJ	.	.
16B-LL)	8e-] 8ee-L]	.
16GJ	.	.
8E-J	8b- 8gg 8bb-J	.
=24	=24	=24
8BB-L	16cc# 16ggLK	.
.	8dd 8ff	.
8F 8B- 8dJ	.	.
.	[16d [16b- [16ddJk	.
8FFL	16d] 16b-] 16ddLL]	.
.	16e- 16ccn 16ee-J	.
8F 8B- 8dJ	8f 8dd 8ffJ	.
=25	=25	=25
(16DLL	[4B- [4b-	.
16C#	.	.
16D	.	.
16E-JJ	.	.
16FLL)	8B-] 8b-L]	.
16DJ	.	.
8FJ	8ddJ	.
=26	=26	=26
8CL	16ee-LL	.
.	16ff	.
8F 8A 8e-J	16a	.
.	16ccJJ	.
8FFL	16ee-LK	.
.	8ff	.
8F 8A 8e-J	.	.
.	16aaJk	.
=27	=27	=27
8AAL	8ee- 8ggL	.
8F 8c 8e-J	16aaL	.
.	[16ee- [16ggJJ	.
8FFL	16ee-] 16ggLL]	.
.	16aa	.
8F 8A 8e-J	16ccc	.
.	16ee-JJ	.
=28	=28	=28
8BB-L	16ddLL	.
.	16ff	.
8F 8B- 8dJ	16b-	.
.	16ccJJ	.
8FFL	16ddLK	.
.	8ff	.
8F 8B- 8dJ	.	.
.	16bb-Jk	.
=29	=29	=29
8BB-L	16dd 16ggLK	.
.	8bb-	.
8F 8B- 8dJ	.	.
.	[16dd [16ggJk	.
8D 8dL	16dd] 16ggLL]	.
.	16bb-J	.
8BB- 8B-J	8ff 8dddJ	.
=30	=30	=30
8E-L	16ff# 16cccLK	.
.	8gg 8bb-	.
8G 8B- 8e-J	.	.
.	[16g [16ee- [16ggJk	.
8BB-L	16g] 16ee-] 16ggLL]	.
.	16a 16ffn 16aaJ	.
8G 8B- 8e-J	8b- 8gg 8bb-J	.
=31	=31	=31
(16GLL	[4e- [4ee-	.
16F#	.	.
16G	.	.
16AJJ	.	.
16B-LL)	8e-] 8ee-L]	.
16GJ	.	.
8E-J	8b- 8gg 8bb-J	.
=32	=32	=32
8BB-L	16cc# 16ggLK	.
.	8dd 8ff	.
8F 8B- 8dJ	.	.
.	[16d [16b- [16ddJk	.
8FFL	16d] 16b-] 16ddLL]	.
.	16e- 16ccn 16ee-J	.
8F 8B- 8dJ	8f 8dd 8ffJ	.
=33	=33	=33
(16DLL	[4B- [4b-	.
16C#	.	.
16D	.	.
16E-JJ	.	.
16FLL)	8B-] 8b-L]	.
16DJ	.	.
8BB-J	8d 8a-J	.
=34	=34	=34
8EE- 8E-L	8.e- 8.gL	.
8G 8B- 8e-J	.	.
.	16g 16b-Jk	.
8GG 8GL	16b- 16ee-LL	.
.	16g	.
8GG- 8G-J	16b-	.
.	16ccJJ	.
=35	=35	=35
8FF 8FL	8b- 8ddL	.
8B- 8dJ	8fJ	.
(16c#LL	(16enLL	.
16B-	16g	.
16G	16b-	.
16EnJJ)	16cc#JJ)	.
=36	=36	=36
8FL	8ddL	.
8B- 8dJ	16ffL	.
.	[16fJJ	.
8FL	16fLL]	.
.	16ddJ	.
8A 8e-J	8ccJ	.
=37	=37	=37
*>B1	*>B1	*>B1
8B- 8d	8b-	.
(8fL	(8ddL	.
8d	8ff	.
8B-J)	8ff 8dddJ)	.
=38:|!	=38:|!	=38:|!
*>B2	*>B2	*>B2
*^	*	*
[4d	8B-L	[4b-	.
.	8F	.	.
8d]	8BB-J	8b-]	.
*v	*v	*	*
=	=	=
*k[b-e-a-]	*k[b-e-a-]	*k[b-e-a-]
8r	(16gLL	.
.	16a-JJ)	.
=39!|:	=39!|:	=39!|:
*>C	*>C	*>C
8EE- 8E-L	(16b-LL	.
.	16gg	.
8B- 8e- 8gJ	16ff	.
.	16ee-JJ	.
8GG 8GL	16b-LL	.
.	16bn	.
8GG- 8G-J	16cc	.
.	16cc#JJ)	.
=40	=40	=40
8FF 8FL	16ddLK	.
.	8aa- 8ccc	.
8B- 8d 8a-J	.	.
.	16ddJk	.
8BB-L	8.aa- 8.cccL	.
8B- 8d 8a-J	.	.
.	[16b-Jk	.
=41	=41	=41
8EE- 8E-L	16b-LL]	.
.	(16gg	.
8B- 8e- 8gJ	16ff	.
.	16ee-JJ	.
8GG 8GL	16b-LL	.
.	16bn	.
8GG- 8G-J	16cc	.
.	16cc#JJ)	.
=42	=42	=42
8FF 8FL	16ddLK	.
.	8aa- 8ccc	.
8B- 8d 8a-J	.	.
.	16ddJk	.
8BB-L	8.aa- 8.cccL	.
8B- 8d 8a-J	.	.
.	[16bb-Jk	.
=43	=43	=43
8DD 8DL	16bb-LL]	.
.	16ff	.
8B- 8d 8a-J	16gg	.
.	[16aa-JJ	.
8BB-L	16aa-LL]	.
.	16gg	.
8B- 8d 8a-J	16ff	.
.	16ff#JJ	.
=44	=44	=44
8EE- 8E-L	16ggLL	.
.	16ff#	.
8B- 8e- 8gJ	16gg	.
.	[16gg [16eee-JJ	.
8CL	16gg] 16eee-LL]	.
.	16ddd	.
8c 8e-J	16gg 16eee-	.
.	16cccJJ	.
=45	=45	=45
8FL	16ff 16dddLL	.
.	16bb-	.
8B- 8dJ	16ff	.
.	[16ee- [16ggJJ	.
8CL	16ee-] 16ggLL]	.
.	16ee- 16ggJ	.
8FJ	8ee- 8aanJ	.
=46	=46	=46
*^	*^	*
4r	2BB-	16bb-LL	4dd	.
.	.	16ccc	.	.
.	.	16bb-	.	.
.	.	16aa-JJ	.	.
4B- 4d 4a-	.	16ffLL	4r	.
.	.	16dd	.	.
.	.	16cc	.	.
.	.	16cc-JJ	.	.
*v	*v	*	*	*
*	*v	*v	*
=47	=47	=47
8EE- 8E-L	(16b-LL	.
.	16gg	.
8B- 8e- 8gJ	16ff	.
.	16ee-JJ	.
8GG 8GL	16b-LL	.
.	16bn	.
8GG- 8G-J	16cc	.
.	16cc#JJ)	.
=48	=48	=48
8FF 8FL	16ddLK	.
.	8aa- 8ccc	.
8B- 8d 8a-J	.	.
.	16ddJk	.
8BB-L	8.aa- 8.cccL	.
8B- 8d 8a-J	.	.
.	[16b-Jk	.
=49	=49	=49
8EE- 8E-L	16b-LL]	.
.	(16gg	.
8B- 8e- 8gJ	16ff	.
.	16ee-JJ	.
8GG 8GL	16b-LL	.
.	16bn	.
8GG- 8G-J	16cc	.
.	16cc#JJ)	.
=50	=50	=50
8FF 8FL	16ddLK	.
.	8aa- 8ccc	.
8B- 8d 8a-J	.	.
.	16ddJk	.
8BB-L	8.aa- 8.cccL	.
8B- 8d 8a-J	.	.
.	[16ggJk	.
=51	=51	=51
8EE- 8E-L	16ggLL]	.
.	16eee-	.
8B- 8e- 8gJ	16bb-	.
.	16ggJJ	.
8GGL	16ee-LL	.
.	16gg	.
8B- 8d- 8e-J	16ff	.
.	16ee-JJ	.
=52	=52	=52
8AA-L	16ccLL	.
.	16bn	.
8A- 8c 8e-J	16cc	.
.	[16ee-JJ	.
8AAnL	16ee-LL]	.
.	16cc	.
8F# 8c 8e-J	16b	.
.	16f#JJ	.
=53	=53	=53
8BB-L	16gLL	.
.	16a-J	.
8G 8B- 8e-J	8b-J	.
8BB-L	16gLK	.
.	8f	.
8A- 8B- 8dJ	.	.
.	16b-Jk	.
=54	=54	=54
*>C1	*>C1	*>C1
8E- 8G 8B-	8e-L	.
.	(ccq	.
8r	8b-J)	.
.	(ccq	.
4r	8b-L)	.
.	16gL	.
.	16a-JJ	.
=55:|!	=55:|!	=55:|!
*>C2	*>C2	*>C2
8E- 8G 8B-L	4e-	.
8BB- 8B-J	.	.
8EE- 8E-	8e- 8g 8b- 8ee-	.
8r	8r	.
=56	=56	=56
*>D	*>D	*>D
(8E-L	(16e-LL	.
.	16b-	.
*^	*	*
8ryy	8EnJ	16g	.
.	.	16g-JJ	.
*	*	*^	*
4F	(8FL)	8fL)	(4f	.
.	8BB-J)	8b-) 8ddJ	.	.
*v	*v	*	*	*
*	*v	*v	*
=57	=57	=57
(8E-L	(16e-LL	.
.	16b-	.
8EnJ)	16g	.
.	16g-JJ	.
4F	4f)	.
=58	=58	=58
8CL	16anLL	.
.	16cc	.
8F 8An 8e-J	16ee-	.
.	[16ggJJ	.
8FFL	16ggLL]	.
.	16ff	.
8F 8A 8e-J	16ee-	.
.	16aJJ	.
=59	=59	=59
8BB-L	8b-	.
8F 8B- 8dJ	8r	.
8FFL	4r	.
8F 8B- 8dJ	.	.
=60!|:	=60!|:	=60!|:
*>E	*>E	*>E
*k[b-e-]	*k[b-e-]	*k[b-e-]
8C 8cL	8fL	mf
8F 8A 8e-J	16gL	.
.	[16aJJ	.
8FFL	16aLL]	.
.	16gJ	.
8F 8A 8e-J	8fJ	.
=61	=61	=61
8CL	[4f [4a [4ff	.
8F 8A 8e-J	.	.
8FFL	16f] 16a] 16ffLL]	.
.	16ee-	.
8F 8A 8e-J	16cc	.
.	16cc#JJ	.
=62	=62	=62
8BB-L	16ddLL	.
.	16ddd	.
8F 8B- 8dJ	16bb-	.
.	16ffJJ	.
8FFL	16ggLL	.
.	16ff	.
8F 8B- 8dJ	16b-	.
.	[16ddJJ	.
=63	=63	=63
8BB-L	16ddLL]	.
.	16bb-	.
8F 8B- 8dJ	16aa	.
.	16ggJJ	.
8D 8dL	16ggLK	.
.	8ff	.
8BBn 8BnJ	.	.
.	16ddJk	.
=64	=64	=64
*	*^	*
8C 8cL	8ee-L	8.aL	.
8F 8A 8e-J	16ffL	.	.
.	[16ee-JJ	[16aJk	.
8FF 8FL	16ee-LL]	8aL]	.
.	16ddJ	.	.
8FF# 8F#J	8ccJ	8aJ	.
*	*v	*v	*
=65	=65	=65
8GG 8GL	[4b-	.
8G 8B- 8dJ	.	.
8GGL	16b-LL]	.
.	16dd	.
8B- 8dJ	16gg	.
.	16bb-JJ	.
=66	=66	=66
8AAL	16aaLL	.
.	16ff	.
8A 8d 8fJ	16dd	.
.	[16aJJ	.
8AAL	16aLL]	.
.	16gg	.
8A 8c# 8gJ	16ff	.
.	16eenJJ	.
=67	=67	=67
8d 8fL	[4dd	.
(GGq	.	.
8AAJ)	.	.
8DD	8dd]	.
8r	8r	.
=68	=68	=68
8CL	8fL	.
8F 8A 8e-J	16gL	.
.	[16aJJ	.
8FFL	16aLL]	.
.	16gJ	.
8F 8A 8e-J	8fJ	.
=69	=69	=69
8CL	[4f [4a [4ff	.
8F 8A 8e-J	.	.
8FFL	16f] 16a] 16ffLL]	.
.	16ee-	.
8F 8A 8e-J	16cc	.
.	16cc#JJ	.
=70	=70	=70
8BB-L	16ddLL	.
.	16ddd	.
8F 8B- 8dJ	16bb-	.
.	16ffJJ	.
*	*^	*
8GGL	16aa-LL	8.bnL	.
.	16gg	.	.
8G 8Bn 8dJ	16ff	.	.
.	[16ee-JJ	[16ccJk	.
*	*v	*v	*
=71	=71	=71
8CL	16cc] 16ee-LL]	.
.	16ff#	.
8G 8c 8e-J	16gg	.
.	16aaJJ	.
8EE- 8E-L	16cccLL	.
.	16bb-	.
8G 8c 8e-J	16gg	.
.	16ee-JJ	.
=72	=72	=72
8EE- 8E-L	16ggLL	.
.	16b-	.
8G 8B- 8e-J	16cc	.
.	[16ee-JJ	.
8GG 8GL	16ee-LL]	.
.	16ffJ	.
8EE- 8E-J	8b- 8ggJ	.
=73	=73	=73
8DD 8DL	[4b- 4ff [4bb-	.
8F 8B- 8dJ	.	.
8EEn 8EnL	16b-] 16bb-LL]	.
.	16bb-	.
8G 8B- 8c#J	16aa	.
.	16ggJJ	.
=74	=74	=74
8FF 8FL	16ffLK	.
.	8dd	.
8F 8B- 8dJ	.	.
.	16ccJk	.
8GG 8GL	8en 8b-L	.
8FF 8FJ	8e- 8a 8ccJ	.
=75	=75	=75
*>E1	*>E1	*>E1
8BB- 8B-	8d 8b-	.
8r	(16ddLL	.
.	16cc#JJ	.
8r	16ddLL	.
.	16b-	.
8BBn 8Bn	16g	.
.	16g-JJ)	.
=76:|!	=76:|!	=76:|!
*>E2	*>E2	*>E2
8BB- 8B-L	4d 4b-	.
8FF 8FJ	.	.
8BBB- 8BB-	8b- 8dd 8ff 8bb-	.
8r	8r	.
=	=	=
*-	*-	*-
!!!ENC: Craig Stuart Sapp
!!!END: 2008/02/23
!!!EEV: 2018/06/01
